X:1
T:Avverti o cor
T:Benedetto Ferrari
T:Source : Musiche Varie a voce sola---Libro terzo---Venetia---B.Magni---1641. Editor : André Vierendeels (17/01/17).
T:Notes : Original clefs : C1, F4
T:Avverti o cor
T:©
T:©
T:©
T:©
C:Benedetto Ferrari
Z:©
%%score 1 2
L:1/8
Q:1/4=120
M:4/4
K:F
V:1 treble nm="Soprano" snm="S"
V:2 bass nm="MusicXML Part"
V:1
 z2 z f Bcde | f4 gf_ed | c2 z2 z dcd | B2 z2 z GAB | c2 z2 z ABc | d2 z2 z de^f | g2 f2 e3 d | %7
w: Av- ver- * * *|ti o _ _ _|cor se del tue'ar-|dor Lil- la non|hà qual- che pie-|tà, Lil- la non|hà qual che pie-|
w: Non so- * * *|* spi- * * *|rar non la- gri-|mar s'à pie- tà|muor chi t'ar- deogn'|hor, s'à pie- tà|muor chi t'ar- de'ogn'|
w: Se hau- * * *|r'à'l cor _ _ _|fier, slat- ti'à ve-|der, al- tri lan-|guir e'in- ce- ne-|rir mal per tè|mai t'am- mo- ni-|
 dddd _eecc | dd B2 z c A2 | z BGB cd _ed | cB _ed cB B2 :: z FBA GGcB | AAdc BB_ed | cA d3 B _e2 | %14
w: tà che ti con- su- mi piu non|vuo no no no no|no no che ti con- su- *|mi _ piu _ non _ vuo,|mà s'à tua fè da tà mer-|ce, mà sà tua fè da- rà mer-|cè, mer- cè, mer- cè,|
w: hor pian- ge- ri mor- ti non fà|pro no no no no|no no pian- ge- ri mor- *|ti _ non _ fà _ pro,|se'à ca- ri- tà el- la viu-|rà, se'a ca- ri- ta el- la viu-|ra, vuo che, vuo che|
w: ro mal per tè mai t'am- mo- ni|ro no no no no|no no mal per tè mai _|t'am- * mo- * ni- * ro,|ma se nel sen t'ac- cog- gle'ap-|pien, ma se nel sen t'ac- cog- gle'ap-|pien, vuo che, vuo che|
 z def g2 f2 | e2 ed dddd | _eecc dd B2 | z c A2 z BGB | cd _ed cB ed | cB !fermata!B2 z4 |] %20
w: vuo che tu ar- da|not- te e di, vuo che ti|ar- da not- t'è di si si|si si si si vuo|che tu ar- * da _ not- *|t'è _ di.|
w: vuo che tu pian- ga|no- te e di, vuo che tu|pian- ga not- t'è di si si|si si si si vuo|che tu ar- * da- * not- *|t'è _ di.|
w: vuo che tu mo- ra|not- te, e di, vuo che tu|pian- ga not- t'è di si si|si si si si vuo|che tu mo- * ra _ not- *|t'è _ di.|
V:2
"^BC" B,,4- B,,3 C, | D,_E,F,D, E,4 | F,F,_E,F, D,4 | z B,,C,D, _E,4 | z C,D,E, F,4 | %5
 z D,E,^F, G,3 A, | B,2 G,2 A,2 A,,2 | D,2 B,2 G,2 A,2 | F,2 z G, E,2 z F, | D,2 _E,D, E,F,G,F, | %10
 G,_E, F,2 F,,2 B,,2 :: B,,4 _E,D, C,2 |"^(b)" F,E, D,2 G,F, _E,2 | F,3 D, G,3 A, | B,4 G,4 | %15
 A,2 A,,2 D,2 B,2 | G,2 A,2 F,2 z G, | E,2 z F, D,2 _E,D, | _E,F,G,F, G,E, F,2 | %19
 F,,2 !fermata!B,,2 z4 |] %20

